assets/images/MCCGroupIcons/MCC-Utilities.svg

<svg xmlns="http://www.w3.org/2000/svg" viewBox="0 0 40 40"><style type="text/css">.st0{fill-rule:evenodd;clip-rule:evenodd}</style><path d="M37.4142 2.58579C38.1953 3.36683 38.1953 4.63316 37.4142 5.41421L34.2058 8.62264C37.2073 12.9679 36.3295 18.4797 32.4195 22.3795L31.2738 23.5222C30.6351 24.1593 29.5985 24.1593 28.9597 23.5222L16.4791 11.2645C15.8403 10.6274 15.8403 9.59355 16.4791 8.95647L17.935 7.50432C21.8305 3.61902 27.2121 2.84712 31.3921 5.77947L34.5858 2.58579C35.3668 1.80474 36.6332 1.80474 37.4142 2.58579Z" class="st0"/><path d="M6.6079 36.2205L3.41421 39.4142C2.63317 40.1953 1.36684 40.1953 0.585787 39.4142C-0.195262 38.6332 -0.195262 37.3668 0.585786 36.5858L3.79422 33.3774C0.792677 29.0321 1.67048 23.5203 5.58052 19.6205L6.72619 18.4778C7.36495 17.8407 8.40151 17.8407 9.04027 18.4778L10.8835 20.2881L14.5858 16.5858C15.3668 15.8047 16.6332 15.8047 17.4142 16.5858C18.1953 17.3668 18.1953 18.6332 17.4142 19.4142L13.7374 23.091L16.9376 26.234L20.5858 22.5858C21.3668 21.8047 22.6332 21.8047 23.4142 22.5858C24.1953 23.3668 24.1953 24.6332 23.4142 25.4142L19.7915 29.037L21.5209 30.7355C22.1597 31.3726 22.1597 32.4065 21.5209 33.0435L20.065 34.4957C16.1695 38.381 10.7879 39.1529 6.6079 36.2205Z" class="st0"/></svg>

<svg xmlns="http://www.w3.org/2000/svg" viewBox="0 0 40 40"><style>.st0{fill-rule:evenodd;clip-rule:evenodd}</style><path d="M37.414 2.586a2 2 0 0 1 0 2.828l-3.208 3.209c3.001 4.345 2.124 9.857-1.787 13.757l-1.145 1.142a1.64 1.64 0 0 1-2.314 0L16.48 11.265a1.63 1.63 0 0 1 0-2.309l1.455-1.452c3.896-3.885 9.277-4.657 13.457-1.725l3.194-3.193a2 2 0 0 1 2.828 0M6.608 36.22l-3.194 3.194a2 2 0 1 1-2.828-2.828l3.208-3.209C.793 29.032 1.67 23.52 5.581 19.62l1.145-1.142a1.64 1.64 0 0 1 2.314 0l1.844 1.81 3.702-3.702a2 2 0 1 1 2.828 2.828l-3.677 3.677 3.2 3.143 3.649-3.648a2 2 0 1 1 2.828 2.828l-3.623 3.623 1.73 1.698a1.63 1.63 0 0 1 0 2.309l-1.456 1.452c-3.896 3.885-9.277 4.657-13.457 1.724" class="st0"/></svg>
